;FLAVOR:UltiGCode
;TIME:3252
;MATERIAL:23782
;MATERIAL2:0
;NOZZLE_DIAMETER:2.000000
;NOZZLE_DIAMETER2:2.000000

;Layer count: 26
;LAYER:0
M107
G0 F9000 X67.411 Y70.318 Z0.300
G0 X66.065 Y71.933
;TYPE:SKIRT
G1 F1200 X67.411 Y70.318 E0.31535
G1 X70.618 Y71.195 E0.81407
G1 X71.523 Y71.523 E0.95846
G1 X71.205 Y70.647 E1.09825
G1 X70.873 Y69.440 E1.28602
G1 X70.321 Y67.417 E1.60057
G1 X75.240 Y63.292 E2.56352
G1 X78.238 Y64.707 E3.06079
G1 X79.071 Y65.187 E3.20500
G1 X78.911 Y64.267 E3.34507
G1 X78.807 Y63.166 E3.51096
G1 X78.421 Y61.040 E3.83507
G1 X84.163 Y57.726 E4.82953
G1 X86.870 Y59.643 E5.32708
G1 X87.606 Y60.259 E5.47105
G1 X87.607 Y59.328 E5.61070
G1 X87.709 Y58.068 E5.80032
G1 X87.898 Y55.987 E6.11375
G1 X93.915 Y53.795 E7.07433
G1 X96.241 Y56.146 E7.57041
G1 X96.867 Y56.889 E7.71614
G1 X97.030 Y55.969 E7.85629
G1 X97.350 Y54.746 E8.04591
G1 X97.899 Y52.732 E8.35904
G1 X104.202 Y51.618 E9.31914
G1 X106.084 Y54.336 E9.81504
G1 X106.573 Y55.179 E9.96122
G1 X106.892 Y54.304 E10.10092
G1 X107.411 Y53.170 E10.28799
G1 X108.278 Y51.262 E10.60235
G1 X114.712 Y51.262 E11.56745
G1 X116.092 Y54.265 E12.06319
G1 X116.427 Y55.179 E12.20921
G1 X116.893 Y54.372 E12.34899
G1 X117.608 Y53.336 E12.53780
G1 X118.810 Y51.620 E12.85207
G1 X125.121 Y52.736 E13.81341
G1 X125.961 Y55.930 E14.30880
G1 X126.132 Y56.889 E14.45492
G1 X126.732 Y56.176 E14.59470
G1 X127.616 Y55.280 E14.78350
G1 X129.096 Y53.799 E15.09756
G1 X135.122 Y55.994 E16.05956
G1 X135.391 Y59.289 E16.55545
G1 X135.392 Y60.261 E16.70125
G1 X136.129 Y59.644 E16.84543
G1 X138.837 Y57.726 E17.34319
G1 X144.399 Y60.936 E18.30647
G1 X144.096 Y64.228 E18.80236
G1 X143.929 Y65.186 E18.94822
G1 X144.762 Y64.707 E19.09236
G1 X147.760 Y63.292 E19.58963
G1 X152.680 Y67.418 E20.55279
G1 X151.809 Y70.607 E21.04866
G1 X151.478 Y71.522 E21.19462
G1 X152.382 Y71.195 E21.33882
G1 X155.582 Y70.320 E21.83644
G1 X158.359 Y73.631 E22.48465
G1 X159.705 Y75.246 E22.80000
G1 X158.298 Y78.228 E23.29459
G1 X157.813 Y79.071 E23.44048
G1 X158.760 Y78.906 E23.58467
G1 X162.063 Y78.599 E24.08225
G1 X164.193 Y82.292 E24.72174
G1 X165.296 Y84.131 E25.04340
G1 X163.364 Y86.859 E25.54483
G1 X162.739 Y87.607 E25.69104
G1 X163.570 Y87.608 E25.81569
G1 X163.710 Y87.608 E25.83669
G1 X167.006 Y87.880 E26.33277
G1 X168.484 Y91.936 E26.98030
G1 X169.204 Y93.916 E27.29633
G1 X166.846 Y96.249 E27.79389
G1 X166.112 Y96.867 E27.93782
G1 X167.059 Y97.035 E28.08209
G1 X170.264 Y97.880 E28.57927
G1 X171.016 Y102.132 E29.22697
G1 X171.377 Y104.205 E29.54260
G1 X168.654 Y106.091 E30.03945
G1 X167.823 Y106.573 E30.18355
G1 X168.724 Y106.902 E30.32743
G1 X171.738 Y108.288 E30.82504
G1 X171.738 Y114.712 E31.78864
G1 X168.724 Y116.098 E32.28625
G1 X167.823 Y116.427 E32.43013
G1 X168.654 Y116.909 E32.57423
G1 X171.382 Y118.799 E33.07204
G1 X170.630 Y123.050 E33.71959
G1 X170.271 Y125.119 E34.03458
G1 X167.059 Y125.965 E34.53281
G1 X166.112 Y126.133 E34.67708
G1 X166.846 Y126.751 E34.82101
G1 X169.205 Y129.085 E35.31878
G1 X167.727 Y133.142 E35.96646
G1 X166.941 Y135.302 E36.31124
G1 X164.789 Y135.302 E36.63404
G1 X163.702 Y135.392 E36.79765
G1 X162.740 Y135.393 E36.94195
G1 X163.338 Y136.108 E37.08177
G1 X164.066 Y137.132 E37.27023
G1 X165.267 Y138.848 E37.58441
G1 X163.102 Y142.600 E38.23418
G1 X162.024 Y144.397 E38.54851
G1 X158.760 Y144.094 E39.04022
G1 X157.813 Y143.929 E39.18441
G1 X158.278 Y144.736 E39.32411
G1 X158.794 Y145.825 E39.50487
G1 X159.742 Y147.720 E39.82271
G1 X156.935 Y151.067 E40.47795
G1 X155.589 Y152.682 E40.79330
G1 X152.382 Y151.805 E41.29201
G1 X151.477 Y151.477 E41.43641
G1 X151.795 Y152.353 E41.57620
G1 X152.127 Y153.560 E41.76397
G1 X152.679 Y155.583 E42.07851
G1 X147.760 Y159.708 E43.04146
G1 X144.762 Y158.293 E43.53874
G1 X143.929 Y157.813 E43.68295
G1 X144.089 Y158.733 E43.82302
G1 X144.193 Y159.834 E43.98890
G1 X144.579 Y161.960 E44.31302
G1 X138.837 Y165.274 E45.30747
G1 X136.130 Y163.357 E45.80503
G1 X135.394 Y162.741 E45.94899
G1 X135.393 Y163.672 E46.08865
G1 X135.291 Y164.932 E46.27826
G1 X135.102 Y167.013 E46.59170
G1 X129.085 Y169.205 E47.55227
G1 X126.759 Y166.854 E48.04835
G1 X126.133 Y166.111 E48.19409
G1 X125.970 Y167.031 E48.33423
G1 X125.650 Y168.254 E48.52386
G1 X125.101 Y170.268 E48.83698
G1 X118.798 Y171.382 E49.79709
G1 X116.916 Y168.664 E50.29298
G1 X116.427 Y167.821 E50.43917
G1 X116.108 Y168.696 E50.57887
G1 X115.589 Y169.830 E50.76594
G1 X114.722 Y171.738 E51.08030
G1 X108.288 Y171.738 E52.04540
G1 X106.908 Y168.735 E52.54113
G1 X106.573 Y167.821 E52.68715
G1 X106.107 Y168.628 E52.82693
G1 X105.392 Y169.664 E53.01575
G1 X104.190 Y171.380 E53.33002
G1 X97.879 Y170.264 E54.29135
G1 X97.039 Y167.070 E54.78675
G1 X96.868 Y166.111 E54.93286
G1 X96.268 Y166.824 E55.07264
G1 X95.384 Y167.720 E55.26145
G1 X93.904 Y169.201 E55.57551
G1 X87.878 Y167.006 E56.53751
G1 X87.609 Y163.711 E57.03340
G1 X87.608 Y162.739 E57.17920
G1 X86.871 Y163.356 E57.32338
G1 X84.163 Y165.274 E57.82114
G1 X78.601 Y162.064 E58.78442
G1 X78.904 Y158.772 E59.28030
G1 X79.071 Y157.814 E59.42617
G1 X78.238 Y158.293 E59.57031
G1 X75.240 Y159.708 E60.06758
G1 X70.320 Y155.582 E61.03074
G1 X71.191 Y152.393 E61.52661
G1 X71.522 Y151.478 E61.67257
G1 X70.618 Y151.805 E61.81676
G1 X67.418 Y152.680 E62.31438
G1 X64.641 Y149.369 E62.96259
G1 X63.295 Y147.754 E63.27795
G1 X64.702 Y144.772 E63.77254
G1 X65.187 Y143.929 E63.91842
G1 X64.240 Y144.094 E64.06261
G1 X60.937 Y144.401 E64.56020
G1 X58.807 Y140.708 E65.19968
G1 X57.704 Y138.869 E65.52135
G1 X59.636 Y136.141 E66.02277
G1 X60.261 Y135.393 E66.16898
G1 X59.430 Y135.392 E66.29363
G1 X59.290 Y135.392 E66.31463
G1 X55.994 Y135.120 E66.81072
G1 X54.516 Y131.064 E67.45825
G1 X53.796 Y129.084 E67.77428
G1 X56.154 Y126.751 E68.27184
G1 X56.888 Y126.133 E68.41577
G1 X55.941 Y125.965 E68.56004
G1 X52.736 Y125.120 E69.05721
G1 X51.984 Y120.868 E69.70491
G1 X51.623 Y118.795 E70.02054
G1 X54.346 Y116.909 E70.51740
G1 X55.177 Y116.427 E70.66150
G1 X54.276 Y116.098 E70.80537
G1 X51.262 Y114.712 E71.30299
G1 X51.262 Y108.288 E72.26659
G1 X54.276 Y106.902 E72.76420
G1 X55.177 Y106.573 E72.90807
G1 X54.346 Y106.091 E73.05218
G1 X51.618 Y104.201 E73.54999
G1 X52.370 Y99.950 E74.19754
G1 X52.729 Y97.881 E74.51252
G1 X55.941 Y97.035 E75.01076
G1 X56.888 Y96.867 E75.15502
G1 X56.154 Y96.249 E75.29895
G1 X53.795 Y93.915 E75.79673
G1 X55.273 Y89.858 E76.44440
G1 X56.059 Y87.698 E76.78919
G1 X58.211 Y87.698 E77.11199
G1 X59.298 Y87.608 E77.27560
G1 X60.260 Y87.607 E77.41990
G1 X59.662 Y86.892 E77.55971
G1 X58.934 Y85.868 E77.74817
G1 X57.733 Y84.152 E78.06235
G1 X59.898 Y80.400 E78.71213
G1 X60.976 Y78.603 E79.02646
G1 X64.240 Y78.906 E79.51816
G1 X65.187 Y79.071 E79.66235
G1 X64.722 Y78.264 E79.80206
G1 X64.206 Y77.175 E79.98282
G1 X63.258 Y75.280 E80.30066
G1 X66.065 Y71.933 E80.95589
G0 F9000 X68.659 Y74.287
;TYPE:WALL-OUTER
G1 F1200 X69.559 Y74.533 E81.09585
G1 X71.901 Y75.382 E81.46952
G1 X73.444 Y76.162 E81.72886
G1 X74.276 Y76.716 E81.87879
G1 X74.561 Y76.869 E81.92731
G1 X74.940 Y76.857 E81.98419
G1 X75.227 Y76.679 E82.03485
G1 X76.680 Y75.227 E82.34297
G1 X76.858 Y74.937 E82.39401
G1 X76.869 Y74.560 E82.45059
G1 X76.716 Y74.276 E82.49898
G1 X76.168 Y73.452 E82.64741
G1 X75.389 Y71.917 E82.90562
G1 X74.542 Y69.583 E83.27806
G1 X74.288 Y68.659 E83.42180
G1 X75.773 Y67.414 E83.71248
G1 X76.612 Y67.810 E83.85164
G1 X78.778 Y69.056 E84.22646
G1 X80.157 Y70.089 E84.48491
G1 X80.882 Y70.781 E84.63525
G1 X81.135 Y70.981 E84.68362
G1 X81.509 Y71.035 E84.74030
G1 X81.825 Y70.910 E84.79128
G1 X83.508 Y69.732 E85.09942
G1 X83.733 Y69.477 E85.15044
G1 X83.809 Y69.108 E85.20695
G1 X83.709 Y68.802 E85.25524
G1 X83.313 Y67.897 E85.40341
G1 X82.807 Y66.228 E85.66502
G1 X82.383 Y63.806 E86.03384
G1 X82.293 Y62.847 E86.17832
G1 X83.971 Y61.879 E86.46890
G1 X84.730 Y62.416 E86.60837
G1 X86.644 Y64.017 E86.98266
G1 X87.811 Y65.261 E87.23852
G1 X88.412 Y66.073 E87.39005
G1 X88.632 Y66.323 E87.44000
G1 X88.993 Y66.443 E87.49707
G1 X89.344 Y66.364 E87.55103
G1 X91.186 Y65.505 E87.85590
G1 X91.453 Y65.295 E87.90685
G1 X91.592 Y64.943 E87.96362
G1 X91.545 Y64.624 E88.01199
G1 X91.312 Y63.661 E88.16061
G1 X91.105 Y61.934 E88.42151
G1 X91.107 Y59.469 E88.79126
G1 X91.184 Y58.515 E88.93483
G1 X93.005 Y57.852 E89.22552
G1 X93.661 Y58.515 E89.36542
G1 X95.249 Y60.401 E89.73525
G1 X96.211 Y61.868 E89.99839
G1 X96.651 Y62.755 E90.14691
G1 X96.825 Y63.038 E90.19674
G1 X97.159 Y63.219 E90.25373
G1 X97.518 Y63.203 E90.30763
G1 X99.482 Y62.677 E90.61261
G1 X99.781 Y62.515 E90.66362
G1 X99.979 Y62.193 E90.72032
G1 X99.988 Y61.871 E90.76864
G1 X99.925 Y60.875 E90.91834
G1 X100.021 Y59.138 E91.17929
G1 X100.451 Y56.722 E91.54738
G1 X100.694 Y55.792 E91.69157
G1 X102.601 Y55.455 E91.98205
G1 X103.132 Y56.221 E92.12186
G1 X104.364 Y58.346 E92.49030
G1 X105.056 Y59.952 E92.75261
G1 X105.341 Y60.916 E92.90340
G1 X105.464 Y61.227 E92.95357
G1 X105.759 Y61.460 E93.00995
G1 X106.095 Y61.511 E93.06093
G1 X108.142 Y61.331 E93.36917
G1 X108.465 Y61.224 E93.42021
G1 X108.716 Y60.942 E93.47683
G1 X108.781 Y60.626 E93.52523
G1 X108.889 Y59.644 E93.67341
G1 X109.279 Y57.973 E93.93080
G1 X110.136 Y55.625 E94.30573
G1 X110.531 Y54.762 E94.44809
G1 X112.469 Y54.762 E94.73879
G1 X112.850 Y55.590 E94.87551
G1 X113.707 Y57.931 E95.24945
G1 X114.104 Y59.616 E95.50912
G1 X114.217 Y60.616 E95.66008
G1 X114.284 Y60.942 E95.71000
G1 X114.535 Y61.224 E95.76663
G1 X114.858 Y61.331 E95.81767
G1 X116.905 Y61.511 E96.12590
G1 X117.242 Y61.459 E96.17705
G1 X117.537 Y61.227 E96.23334
G1 X117.656 Y60.926 E96.28189
G1 X117.934 Y59.978 E96.43008
G1 X118.612 Y58.392 E96.68881
G1 X119.848 Y56.253 E97.05937
G1 X120.399 Y55.455 E97.20484
G1 X122.306 Y55.792 E97.49532
G1 X122.543 Y56.694 E97.63521
G1 X122.975 Y59.119 E98.00469
G1 X123.076 Y60.881 E98.26942
G1 X123.015 Y61.840 E98.41356
G1 X123.012 Y61.866 E98.41749
G1 X123.021 Y62.193 E98.46656
G1 X123.220 Y62.517 E98.52359
G1 X123.539 Y62.682 E98.57746
G1 X125.503 Y63.208 E98.88244
G1 X125.843 Y63.218 E98.93347
G1 X126.175 Y63.038 E98.99012
G1 X126.344 Y62.764 E99.03840
G1 X126.783 Y61.878 E99.18672
G1 X127.731 Y60.426 E99.44683
G1 X129.314 Y58.543 E99.81583
G1 X129.995 Y57.852 E99.96136
G1 X131.816 Y58.515 E100.25205
G1 X131.891 Y59.432 E100.39006
G1 X131.895 Y61.930 E100.76476
G1 X131.895 Y61.943 E100.76671
G1 X131.694 Y63.636 E101.02244
G1 X131.459 Y64.614 E101.17332
G1 X131.407 Y64.942 E101.22313
G1 X131.550 Y65.298 E101.28068
G1 X131.834 Y65.514 E101.33420
G1 X133.676 Y66.373 E101.63907
G1 X134.009 Y66.443 E101.69011
G1 X134.367 Y66.323 E101.74675
G1 X134.581 Y66.083 E101.79498
G1 X135.163 Y65.292 E101.94229
G1 X136.344 Y64.030 E102.20155
G1 X138.276 Y62.412 E102.57955
G1 X139.029 Y61.879 E102.71794
G1 X140.708 Y62.848 E103.00872
G1 X140.624 Y63.770 E103.14759
G1 X140.199 Y66.206 E103.51851
G1 X139.697 Y67.873 E103.77965
G1 X139.296 Y68.791 E103.92992
G1 X139.191 Y69.107 E103.97987
G1 X139.267 Y69.477 E104.03652
G1 X139.492 Y69.732 E104.08754
G1 X141.175 Y70.910 E104.39568
G1 X141.491 Y71.035 E104.44666
G1 X141.867 Y70.980 E104.50366
G1 X142.125 Y70.775 E104.55308
G1 X142.843 Y70.089 E104.70204
G1 X144.222 Y69.056 E104.96049
G1 X146.388 Y67.810 E105.33531
G1 X147.227 Y67.414 E105.47448
G1 X148.713 Y68.659 E105.76527
G1 X148.470 Y69.548 E105.90351
G1 X147.626 Y71.881 E106.27566
G1 X146.846 Y73.429 E106.53567
G1 X146.291 Y74.267 E106.68644
G1 X146.131 Y74.560 E106.73651
G1 X146.142 Y74.937 E106.79309
G1 X146.320 Y75.227 E106.84413
G1 X147.740 Y76.646 E107.14525
G1 X147.778 Y76.682 E107.15310
G1 X148.063 Y76.858 E107.20334
G1 X148.440 Y76.869 E107.25992
G1 X148.732 Y76.710 E107.30979
G1 X149.556 Y76.162 E107.45823
G1 X151.099 Y75.382 E107.71757
G1 X153.441 Y74.533 E108.09124
G1 X154.341 Y74.287 E108.23119
G1 X155.586 Y75.773 E108.52198
G1 X155.195 Y76.602 E108.65947
G1 X153.957 Y78.756 E109.03214
G1 X152.918 Y80.147 E109.29257
G1 X152.226 Y80.874 E109.44312
G1 X152.019 Y81.134 E109.49297
G1 X151.965 Y81.509 E109.54980
G1 X152.090 Y81.824 E109.60063
G1 X153.240 Y83.468 E109.90158
G1 X153.271 Y83.510 E109.90941
G1 X153.523 Y83.733 E109.95988
G1 X153.892 Y83.809 E110.01640
G1 X154.208 Y83.705 E110.06630
G1 X155.116 Y83.307 E110.21501
G1 X156.768 Y82.807 E110.47391
G1 X159.219 Y82.378 E110.84715
G1 X160.152 Y82.292 E110.98769
G1 X161.121 Y83.971 E111.27847
G1 X160.591 Y84.720 E111.41611
G1 X159.000 Y86.625 E111.78841
G1 X157.722 Y87.827 E112.05157
G1 X156.918 Y88.418 E112.20125
G1 X156.677 Y88.633 E112.24970
G1 X156.557 Y88.991 E112.30633
G1 X156.627 Y89.324 E112.35737
G1 X157.474 Y91.141 E112.65808
G1 X157.495 Y91.187 E112.66567
G1 X157.705 Y91.453 E112.71650
G1 X158.066 Y91.596 E112.77475
G1 X159.347 Y91.309 E112.97166
G1 X161.062 Y91.104 E113.23074
G1 X163.567 Y91.108 E113.60649
G1 X164.485 Y91.184 E113.74466
G1 X165.148 Y93.005 E114.03535
G1 X164.480 Y93.666 E114.17632
G1 X162.579 Y95.266 E114.54902
G1 X161.131 Y96.212 E114.80847
G1 X160.235 Y96.656 E114.95846
G1 X159.962 Y96.825 E115.00663
G1 X159.782 Y97.157 E115.06327
G1 X159.792 Y97.497 E115.11430
G1 X160.317 Y99.460 E115.41910
G1 X160.483 Y99.780 E115.47317
G1 X160.807 Y99.979 E115.53020
G1 X161.140 Y99.988 E115.58017
G1 X162.126 Y99.924 E115.72838
G1 X163.856 Y100.020 E115.98828
G1 X166.300 Y100.455 E116.36064
G1 X167.208 Y100.694 E116.50148
G1 X167.545 Y102.601 E116.79197
G1 X166.770 Y103.138 E116.93340
G1 X164.625 Y104.381 E117.30526
G1 X163.032 Y105.063 E117.56519
G1 X162.074 Y105.344 E117.71495
G1 X161.773 Y105.463 E117.76350
G1 X161.540 Y105.759 E117.82000
G1 X161.489 Y106.095 E117.87098
G1 X161.664 Y108.094 E118.17198
G1 X161.669 Y108.144 E118.17951
G1 X161.777 Y108.467 E118.23060
G1 X162.065 Y108.723 E118.28840
G1 X163.369 Y108.892 E118.48564
G1 X165.045 Y109.284 E118.74382
G1 X167.396 Y110.144 E119.11932
G1 X168.238 Y110.531 E119.25833
G1 X168.238 Y112.469 E119.54903
G1 X167.396 Y112.856 E119.68803
G1 X165.045 Y113.716 E120.06353
G1 X163.366 Y114.109 E120.32219
G1 X162.374 Y114.219 E120.47190
G1 X162.057 Y114.285 E120.52047
G1 X161.776 Y114.535 E120.57689
G1 X161.668 Y114.858 E120.62797
G1 X161.494 Y116.852 E120.92821
G1 X161.489 Y116.903 E120.93590
G1 X161.540 Y117.241 E120.98717
G1 X161.774 Y117.537 E121.04377
G1 X162.083 Y117.658 E121.09355
G1 X163.032 Y117.937 E121.24192
G1 X164.625 Y118.619 E121.50185
G1 X166.769 Y119.861 E121.87351
G1 X167.545 Y120.399 E122.01515
G1 X167.208 Y122.306 E122.30563
G1 X166.300 Y122.545 E122.44647
G1 X163.859 Y122.979 E122.81837
G1 X162.119 Y123.076 E123.07977
G1 X161.129 Y123.012 E123.22858
G1 X160.804 Y123.022 E123.27735
G1 X160.485 Y123.219 E123.33359
G1 X160.323 Y123.518 E123.38460
G1 X159.799 Y125.480 E123.68922
G1 X159.781 Y125.841 E123.74343
G1 X159.962 Y126.175 E123.80042
G1 X160.244 Y126.348 E123.85004
G1 X161.131 Y126.788 E123.99856
G1 X162.579 Y127.734 E124.25801
G1 X164.477 Y129.331 E124.63008
G1 X165.148 Y129.995 E124.77168
G1 X164.485 Y131.815 E125.06223
G1 X163.556 Y131.892 E125.20206
G1 X161.062 Y131.896 E125.57616
G1 X159.349 Y131.691 E125.83494
G1 X158.376 Y131.455 E125.98513
G1 X158.057 Y131.408 E126.03349
G1 X157.705 Y131.547 E126.09026
G1 X157.495 Y131.814 E126.14121
G1 X156.648 Y133.630 E126.44178
G1 X156.627 Y133.675 E126.44923
G1 X156.557 Y134.009 E126.50042
G1 X156.678 Y134.369 E126.55739
G1 X156.926 Y134.587 E126.60692
G1 X157.722 Y135.173 E126.75519
G1 X158.983 Y136.356 E127.01454
G1 X160.562 Y138.244 E127.38373
G1 X161.121 Y139.030 E127.52841
G1 X160.153 Y140.708 E127.81899
G1 X159.219 Y140.622 E127.95968
G1 X156.768 Y140.193 E128.33292
G1 X155.116 Y139.693 E128.59182
G1 X154.198 Y139.291 E128.74214
G1 X153.891 Y139.191 E128.79058
G1 X153.522 Y139.268 E128.84712
G1 X153.268 Y139.492 E128.89792
G1 X152.104 Y141.157 E129.20265
G1 X151.965 Y141.488 E129.25650
G1 X152.019 Y141.865 E129.31362
G1 X152.219 Y142.118 E129.36200
G1 X152.904 Y142.835 E129.51074
G1 X153.933 Y144.207 E129.76799
G1 X155.180 Y146.371 E130.14263
G1 X155.586 Y147.228 E130.28488
G1 X154.341 Y148.713 E130.57555
G1 X153.441 Y148.467 E130.71550
G1 X151.099 Y147.618 E131.08918
G1 X149.556 Y146.838 E131.34852
G1 X148.724 Y146.284 E131.49845
G1 X148.439 Y146.131 E131.54697
