;FLAVOR:UltiGCode
;TIME:470
;MATERIAL:6266
;MATERIAL2:0
;NOZZLE_DIAMETER:0.8
;Generated with Cura_SteamEngine 2.5.0

;LAYER_COUNT:33
;LAYER:0

G0 F5400 X119.056 Y123.638
G1 F1800 X124.113 Y104.767 E17.86073
G1 X124.158 Y104.598
G0 F5400 X122.965 Y102.931
G1 F1800 X97.288 Y109.811 E27.72293
G1 X97.119 Y109.856
G0 F5400 X97.21 Y112.06
G1 F1800 X110.947 Y125.796 E34.93011
G1 X111.07 Y125.919
G0 F5400 X113.066 Y125.71
G1 F1800 X119.962 Y99.974 E44.81499
G1 X120.007 Y99.805
G0 F5400 X118.102 Y98.799
G1 F1800 X99.447 Y103.797 E51.98008
G1 X99.278 Y103.842
G0 F5400 X98.379 Y105.803
G1 F1800 X117.193 Y124.618 E61.85155
G1 X117.316 Y124.741
G0 F5400 X123.651 Y119.053
G1 F1800 X104.74 Y124.12 E69.11501
G1 X104.571 Y124.165
G0 F5400 X102.936 Y122.948
G1 F1800 X109.808 Y97.301 E78.96569
G1 X109.853 Y97.132
G0 F5400 X112.05 Y97.201
G1 F1800 X125.788 Y110.939 E86.17365
G1 X125.911 Y111.062
G0 F5400 X125.731 Y113.06
G1 F1800 X99.963 Y119.965 E96.07086
G1 X99.794 Y120.01
G0 F5400 X98.805 Y118.079
G1 F1800 X103.797 Y99.447 E103.22714
G1 X103.842 Y99.278
G0 F5400 X105.805 Y98.38
G1 F1800 X124.62 Y117.195 E113.09886
G1 X124.743 Y117.318
G0 F5400 X125.293 Y107.742
G1 F1800 X97.673 Y115.143 E123.70738
G1 X97.504 Y115.188
G0 F5400 X107.737 Y125.312
G1 F1800 X115.146 Y97.661 E134.32778
G1 X115.191 Y97.492
G0 F5400 X115.408 Y97.434
;TYPE:WALL-OUTER
G1 F1800 X116.904 Y97.938 E134.91345
G1 X118.337 Y98.601 E135.49923
G1 X119.696 Y99.419 E136.08771
G1 X120.951 Y100.373 E136.67257
G1 X122.095 Y101.457 E137.25727
G1 X123.125 Y102.669 E137.84736
G1 X124.01 Y103.975 E138.43265
G1 X124.746 Y105.363 E139.01552
G1 X125.337 Y106.846 E139.60779
G1 X125.756 Y108.356 E140.18917
G1 X126.015 Y109.929 E140.78061
G1 X126.1 Y111.5 E141.3643
G1 X126.015 Y113.071 E141.948
G1 X125.756 Y114.644 E142.53944
G1 X125.337 Y116.154 E143.12082
G1 X124.746 Y117.637 E143.71309
G1 X124.01 Y119.025 E144.29595
G1 X123.125 Y120.331 E144.88125
G1 X122.095 Y121.543 E145.47134
G1 X120.951 Y122.627 E146.05604
G1 X119.696 Y123.581 E146.6409
G1 X118.337 Y124.399 E147.22937
G1 X116.904 Y125.062 E147.81516
G1 X115.408 Y125.566 E148.40083
G1 X113.861 Y125.906 E148.98846
G1 X112.287 Y126.077 E149.57585
G1 X110.713 Y126.077 E150.15981
G1 X109.139 Y125.906 E150.7472
G1 X107.592 Y125.566 E151.33483
G1 X106.096 Y125.062 E151.9205
G1 X104.663 Y124.399 E152.50629
G1 X103.304 Y123.581 E153.09476
G1 X102.049 Y122.627 E153.67962
G1 X100.905 Y121.543 E154.26432
G1 X99.875 Y120.331 E154.85441
G1 X98.99 Y119.025 E155.4397
G1 X98.254 Y117.637 E156.02257
G1 X97.663 Y116.154 E156.61484
G1 X97.244 Y114.644 E157.19622
G1 X96.985 Y113.071 E157.78766
G1 X96.9 Y111.5 E158.37135
G1 X96.985 Y109.929 E158.95505
G1 X97.244 Y108.356 E159.54649
G1 X97.663 Y106.846 E160.12787
G1 X98.254 Y105.363 E160.72014
G1 X98.99 Y103.975 E161.303
G1 X99.875 Y102.669 E161.8883
G1 X100.905 Y101.457 E162.47839
G1 X102.049 Y100.373 E163.06309
G1 X103.304 Y99.419 E163.64795
G1 X104.663 Y98.601 E164.23642
G1 X106.096 Y97.938 E164.82221
G1 X107.592 Y97.434 E165.40788
G1 X109.139 Y97.094 E165.99551
G1 X110.713 Y96.922 E166.58294
G1 X112.287 Y96.922 E167.1669
G1 X113.861 Y97.094 E167.75433
G1 X115.408 Y97.434 E168.34196
G0 F5400 X115.787 Y97.561
G0 X115.563 Y98.224
G0 X101.386 Y101.386
;TIME_ELAPSED:18.046596
;LAYER:1
M106 S255
G0 F6300 X101.386 Y101.386 Z1.13
;TYPE:FILL
G1 F2100 X121.613 Y121.613 E180.35619
G1 X121.736 Y121.736
G0 F6300 X119.056 Y123.638
G1 F2100 X124.113 Y104.767 E188.56166
G1 X124.158 Y104.598
G0 F6300 X122.965 Y102.931
G1 F2100 X97.288 Y109.811 E199.72641
G1 X97.119 Y109.856
G0 F6300 X97.21 Y112.06
G1 F2100 X110.947 Y125.796 E207.88548
G1 X111.07 Y125.919
G0 F6300 X113.066 Y125.71
G1 F2100 X119.962 Y99.974 E219.07591
G1 X120.007 Y99.805
G0 F6300 X118.102 Y98.799
G1 F2100 X99.447 Y103.797 E227.18734
G1 X99.278 Y103.842
G0 F6300 X98.379 Y105.803
G1 F2100 X117.193 Y124.618 E238.36258
G1 X117.316 Y124.741
G0 F6300 X123.651 Y119.053
G1 F2100 X104.74 Y124.12 E246.58537
G1 X104.571 Y124.165
G0 F6300 X102.936 Y122.948
G1 F2100 X109.808 Y97.301 E257.73708
G1 X109.853 Y97.132
G0 F6300 X112.05 Y97.201
G1 F2100 X125.788 Y110.939 E265.89704
G1 X125.911 Y111.062
G0 F6300 X125.731 Y113.06
G1 F2100 X99.963 Y119.965 E277.10143
G1 X99.794 Y120.01
G0 F6300 X98.805 Y118.079
G1 F2100 X103.797 Y99.447 E285.20287
G1 X103.842 Y99.278
G0 F6300 X105.805 Y98.38
G1 F2100 X124.62 Y117.195 E296.37841
G1 X124.743 Y117.318
G0 F6300 X125.293 Y107.742
G1 F2100 X97.673 Y115.143 E308.38806
G1 X97.504 Y115.188
G0 F6300 X107.737 Y125.312
G1 F2100 X115.146 Y97.661 E320.41115
G1 X115.191 Y97.492
G0 F6300 X115.408 Y97.434
;TYPE:WALL-OUTER
G1 F1650 X116.904 Y97.938 E321.07417
G1 X118.337 Y98.601 E321.73732
G1 X119.696 Y99.419 E322.40352
G1 X120.951 Y100.373 E323.06562
G1 X122.095 Y101.457 E323.72755
G1 X123.125 Y102.669 E324.39558
G1 X124.01 Y103.975 E325.05817
G1 X124.746 Y105.363 E325.71802
G1 X125.337 Y106.846 E326.38852
G1 X125.756 Y108.356 E327.04668
G1 X126.015 Y109.929 E327.71624
G1 X126.1 Y111.5 E328.37702
G1 X126.015 Y113.071 E329.03781
G1 X125.756 Y114.644 E329.70736
G1 X125.337 Y116.154 E330.36553
G1 X124.746 Y117.637 E331.03602
G1 X124.01 Y119.025 E331.69587
G1 X123.125 Y120.331 E332.35847
G1 X122.095 Y121.543 E333.0265
G1 X120.951 Y122.627 E333.68842
G1 X119.696 Y123.581 E334.35052
G1 X118.337 Y124.399 E335.01672
G1 X116.904 Y125.062 E335.67988
G1 X115.408 Y125.566 E336.3429
G1 X113.861 Y125.906 E337.00815
G1 X112.287 Y126.077 E337.67312
G1 X110.713 Y126.077 E338.3342
G1 X109.139 Y125.906 E338.99917
G1 X107.592 Y125.566 E339.66441
G1 X106.096 Y125.062 E340.32743
G1 X104.663 Y124.399 E340.99059
G1 X103.304 Y123.581 E341.65679
G1 X102.049 Y122.627 E342.31889
G1 X100.905 Y121.543 E342.98081
G1 X99.875 Y120.331 E343.64884
G1 X98.99 Y119.025 E344.31144
G1 X98.254 Y117.637 E344.97129
G1 X97.663 Y116.154 E345.64178
G1 X97.244 Y114.644 E346.29995
G1 X96.985 Y113.071 E346.9695
G1 X96.9 Y111.5 E347.63029
G1 X96.985 Y109.929 E348.29107
G1 X97.244 Y108.356 E348.96063
G1 X97.663 Y106.846 E349.61879
G1 X98.254 Y105.363 E350.28929
G1 X98.99 Y103.975 E350.94914
G1 X99.875 Y102.669 E351.61173
G1 X100.905 Y101.457 E352.27976
G1 X102.049 Y100.373 E352.94169
G1 X103.304 Y99.419 E353.60379
G1 X104.663 Y98.601 E354.26999
G1 X106.096 Y97.938 E354.93314
G1 X107.592 Y97.434 E355.59616
G1 X109.139 Y97.094 E356.26141
G1 X110.713 Y96.922 E356.92643
G1 X112.287 Y96.922 E357.58751
G1 X113.861 Y97.094 E358.25252
G1 X115.408 Y97.434 E358.91777
G0 F6300 X115.787 Y97.561
G0 X115.563 Y98.224
G0 X101.386 Y101.386
;TIME_ELAPSED:33.131311
;LAYER:2
G0 F7200 X101.386 Y101.386 Z1.73
;TYPE:FILL
G1 F2400 X121.613 Y121.613 E370.93199
G1 X121.736 Y121.736
G0 F7200 X119.056 Y123.638
G1 F2400 X124.113 Y104.767 E379.13746
G1 X124.158 Y104.598
G0 F7200 X122.965 Y102.931
G1 F2400 X97.288 Y109.811 E390.30222
G1 X97.119 Y109.856
G0 F7200 X97.21 Y112.06
G1 F2400 X110.947 Y125.796 E398.46128
G1 X111.07 Y125.919
G0 F7200 X113.066 Y125.71
G1 F2400 X119.962 Y99.974 E409.65172
G1 X120.007 Y99.805
G0 F7200 X118.102 Y98.799
G1 F2400 X99.447 Y103.797 E417.76314
G1 X99.278 Y103.842
G0 F7200 X98.379 Y105.803
G1 F2400 X117.193 Y124.618 E428.93839
G1 X117.316 Y124.741
G0 F7200 X123.651 Y119.053
G1 F2400 X104.74 Y124.12 E437.16117
G1 X104.571 Y124.165
G0 F7200 X102.936 Y122.948
G1 F2400 X109.808 Y97.301 E448.31289
G1 X109.853 Y97.132
G0 F7200 X112.05 Y97.201
G1 F2400 X125.788 Y110.939 E456.47284
G1 X125.911 Y111.062
G0 F7200 X125.731 Y113.06
G1 F2400 X99.963 Y119.965 E467.67723
G1 X99.794 Y120.01
G0 F7200 X98.805 Y118.079
G1 F2400 X103.797 Y99.447 E475.77868
G1 X103.842 Y99.278
G0 F7200 X105.805 Y98.38
G1 F2400 X124.62 Y117.195 E486.95422
G1 X124.743 Y117.318
G0 F7200 X125.293 Y107.742
G1 F2400 X97.673 Y115.143 E498.96386
G1 X97.504 Y115.188
G0 F7200 X107.737 Y125.312
G1 F2400 X115.146 Y97.661 E510.98695
G1 X115.191 Y97.492
G0 F7200 X115.408 Y97.434
;TYPE:WALL-OUTER
G1 F1500 X116.904 Y97.938 E511.64997
G1 X118.337 Y98.601 E512.31313
G1 X119.696 Y99.419 E512.97933
G1 X120.951 Y100.373 E513.64143
G1 X122.095 Y101.457 E514.30335
G1 X123.125 Y102.669 E514.97138
G1 X124.01 Y103.975 E515.63398
G1 X124.746 Y105.363 E516.29383
G1 X125.337 Y106.846 E516.96433
G1 X125.756 Y108.356 E517.62249
G1 X126.015 Y109.929 E518.29204
G1 X126.1 Y111.5 E518.95283
G1 X126.015 Y113.071 E519.61361
G1 X125.756 Y114.644 E520.28317
G1 X125.337 Y116.154 E520.94133
G1 X124.746 Y117.637 E521.61183
G1 X124.01 Y119.025 E522.27168
G1 X123.125 Y120.331 E522.93427
G1 X122.095 Y121.543 E523.6023
G1 X120.951 Y122.627 E524.26423
G1 X119.696 Y123.581 E524.92633
G1 X118.337 Y124.399 E525.59253
G1 X116.904 Y125.062 E526.25569
G1 X115.408 Y125.566 E526.9187
G1 X113.861 Y125.906 E527.58395
G1 X112.287 Y126.077 E528.24892
G1 X110.713 Y126.077 E528.91
G1 X109.139 Y125.906 E529.57497
G1 X107.592 Y125.566 E530.24022
G1 X106.096 Y125.062 E530.90324
G1 X104.663 Y124.399 E531.56639
G1 X103.304 Y123.581 E532.23259
G1 X102.049 Y122.627 E532.8947
G1 X100.905 Y121.543 E533.55662
G1 X99.875 Y120.331 E534.22465
G1 X98.99 Y119.025 E534.88725
G1 X98.254 Y117.637 E535.54709
G1 X97.663 Y116.154 E536.21759
G1 X97.244 Y114.644 E536.87575
G1 X96.985 Y113.071 E537.54531
G1 X96.9 Y111.5 E538.20609
G1 X96.985 Y109.929 E538.86688
G1 X97.244 Y108.356 E539.53643
G1 X97.663 Y106.846 E540.1946
G1 X98.254 Y105.363 E540.8651
G1 X98.99 Y103.975 E541.52494
G1 X99.875 Y102.669 E542.18754
G1 X100.905 Y101.457 E542.85557
G1 X102.049 Y100.373 E543.51749
G1 X103.304 Y99.419 E544.17959
G1 X104.663 Y98.601 E544.84579
G1 X106.096 Y97.938 E545.50895
G1 X107.592 Y97.434 E546.17197
G1 X109.139 Y97.094 E546.83722
G1 X110.713 Y96.922 E547.50223
G1 X112.287 Y96.922 E548.16331
G1 X113.861 Y97.094 E548.82833
G1 X115.408 Y97.434 E549.49357
G0 F7200 X115.787 Y97.561
G0 X115.563 Y98.224
G0 X101.386 Y101.386
;TIME_ELAPSED:47.231370
;LAYER:3
G0 X101.386 Y101.386 Z2.33
;TYPE:FILL
G1 F2400 X121.613 Y121.613 E561.5078
G1 X121.736 Y121.736
G0 F7200 X119.056 Y123.638
G1 F2400 X124.113 Y104.767 E569.71327
G1 X124.158 Y104.598
G0 F7200 X122.965 Y102.931
G1 F2400 X97.288 Y109.811 E580.87803
G1 X97.119 Y109.856
G0 F7200 X97.21 Y112.06
G1 F2400 X110.947 Y125.796 E589.03709
G1 X111.07 Y125.919
G0 F7200 X113.066 Y125.71
G1 F2400 X119.962 Y99.974 E600.22752
G1 X120.007 Y99.805
G0 F7200 X118.102 Y98.799
G1 F2400 X99.447 Y103.797 E608.33895
G1 X99.278 Y103.842
G0 F7200 X98.379 Y105.803
G1 F2400 X117.193 Y124.618 E619.51419
G1 X117.316 Y124.741
G0 F7200 X123.651 Y119.053
G1 F2400 X104.74 Y124.12 E627.73698
G1 X104.571 Y124.165
G0 F7200 X102.936 Y122.948
G1 F2400 X109.808 Y97.301 E638.88869
G1 X109.853 Y97.132
G0 F7200 X112.05 Y97.201
G1 F2400 X125.788 Y110.939 E647.04865
G1 X125.911 Y111.062
G0 F7200 X125.731 Y113.06
G1 F2400 X99.963 Y119.965 E658.25304
G1 X99.794 Y120.01
G0 F7200 X98.805 Y118.079
G1 F2400 X103.797 Y99.447 E666.35449
G1 X103.842 Y99.278
G0 F7200 X105.805 Y98.38
G1 F2400 X124.62 Y117.195 E677.53003
G1 X124.743 Y117.318
G0 F7200 X125.293 Y107.742
G1 F2400 X97.673 Y115.143 E689.53967
G1 X97.504 Y115.188
G0 F7200 X107.737 Y125.312
G1 F2400 X115.146 Y97.661 E701.56276
G1 X115.191 Y97.492
G0 F7200 X115.408 Y97.434
;TYPE:WALL-OUTER
G1 F1500 X116.904 Y97.938 E702.22578
G1 X118.337 Y98.601 E702.88893
G1 X119.696 Y99.419 E703.55514
G1 X120.951 Y100.373 E704.21724
G1 X122.095 Y101.457 E704.87916
G1 X123.125 Y102.669 E705.54719
G1 X124.01 Y103.975 E706.20979
G1 X124.746 Y105.363 E706.86963
G1 X125.337 Y106.846 E707.54013
G1 X125.756 Y108.356 E708.19829
G1 X126.015 Y109.929 E708.86785
G1 X126.1 Y111.5 E709.52864
G1 X126.015 Y113.071 E710.18942
G1 X125.756 Y114.644 E710.85898
G1 X125.337 Y116.154 E711.51714
G1 X124.746 Y117.637 E712.18764
G1 X124.01 Y119.025 E712.84748
G1 X123.125 Y120.331 E713.51008
G1 X122.095 Y121.543 E714.17811
G1 X120.951 Y122.627 E714.84003
G1 X119.696 Y123.581 E715.50214
G1 X118.337 Y124.399 E716.16834
G1 X116.904 Y125.062 E716.83149
G1 X115.408 Y125.566 E717.49451
G1 X113.861 Y125.906 E718.15976
G1 X112.287 Y126.077 E718.82473
G1 X110.713 Y126.077 E719.48581
G1 X109.139 Y125.906 E720.15078
G1 X107.592 Y125.566 E720.81602
G1 X106.096 Y125.062 E721.47904
G1 X104.663 Y124.399 E722.1422
G1 X103.304 Y123.581 E722.8084
G1 X102.049 Y122.627 E723.4705
G1 X100.905 Y121.543 E724.13242
G1 X99.875 Y120.331 E724.80045
G1 X98.99 Y119.025 E725.46305
G1 X98.254 Y117.637 E726.1229
G1 X97.663 Y116.154 E726.7934
G1 X97.244 Y114.644 E727.45156
G1 X96.985 Y113.071 E728.12112
G1 X96.9 Y111.5 E728.7819
G1 X96.985 Y109.929 E729.44269
G1 X97.244 Y108.356 E730.11224
G1 X97.663 Y106.846 E730.7704
G1 X98.254 Y105.363 E731.4409
G1 X98.99 Y103.975 E732.10075
G1 X99.875 Y102.669 E732.76335
G1 X100.905 Y101.457 E733.43138
G1 X102.049 Y100.373 E734.0933
G1 X103.304 Y99.419 E734.7554
G1 X104.663 Y98.601 E735.4216
G1 X106.096 Y97.938 E736.08476
G1 X107.592 Y97.434 E736.74778
G1 X109.139 Y97.094 E737.41302
G1 X110.713 Y96.922 E738.07804
G1 X112.287 Y96.922 E738.73912
G1 X113.861 Y97.094 E739.40413
G1 X115.408 Y97.434 E740.06938
G0 F7200 X115.787 Y97.561
G0 X115.563 Y98.224
G0 X101.386 Y101.386
;TIME_ELAPSED:61.331429
;LAYER:4
G0 X101.386 Y101.386 Z2.93
;TYPE:FILL
G1 F2400 X121.613 Y121.613 E752.08361
G1 X121.736 Y121.736
G0 F7200 X119.056 Y123.638
G1 F2400 X124.113 Y104.767 E760.28908
G1 X124.158 Y104.598
G0 F7200 X122.965 Y102.931
G1 F2400 X97.288 Y109.811 E771.45383
G1 X97.119 Y109.856
G0 F7200 X97.21 Y112.06
G1 F2400 X110.947 Y125.796 E779.6129
G1 X111.07 Y125.919
G0 F7200 X113.066 Y125.71
G1 F2400 X119.962 Y99.974 E790.80333
G1 X120.007 Y99.805
G0 F7200 X118.102 Y98.799
G1 F2400 X99.447 Y103.797 E798.91476
G1 X99.278 Y103.842
G0 F7200 X98.379 Y105.803
G1 F2400 X117.193 Y124.618 E810.09
G1 X117.316 Y124.741
G0 F7200 X123.651 Y119.053
G1 F2400 X104.74 Y124.12 E818.31278
G1 X104.571 Y124.165
G0 F7200 X102.936 Y122.948
G1 F2400 X109.808 Y97.301 E829.4645
G1 X109.853 Y97.132
G0 F7200 X112.05 Y97.201
G1 F2400 X125.788 Y110.939 E837.62446
G1 X125.911 Y111.062
G0 F7200 X125.731 Y113.06
G1 F2400 X99.963 Y119.965 E848.82885
G1 X99.794 Y120.01
G0 F7200 X98.805 Y118.079
G1 F2400 X103.797 Y99.447 E856.93029
G1 X103.842 Y99.278
G0 F7200 X105.805 Y98.38
G1 F2400 X124.62 Y117.195 E868.10583
G1 X124.743 Y117.318
G0 F7200 X125.293 Y107.742
G1 F2400 X97.673 Y115.143 E880.11548
G1 X97.504 Y115.188
G0 F7200 X107.737 Y125.312
G1 F2400 X115.146 Y97.661 E892.13857
G1 X115.191 Y97.492
G0 F7200 X115.408 Y97.434
;TYPE:WALL-OUTER
G1 F1500 X116.904 Y97.938 E892.80159
G1 X118.337 Y98.601 E893.46474
G1 X119.696 Y99.419 E894.13094
G1 X120.951 Y100.373 E894.79304
G1 X122.095 Y101.457 E895.45497
G1 X123.125 Y102.669 E896.123
G1 X124.01 Y103.975 E896.78559
G1 X124.746 Y105.363 E897.44544
G1 X125.337 Y106.846 E898.11594
G1 X125.756 Y108.356 E898.7741
G1 X126.015 Y109.929 E899.44366
G1 X126.1 Y111.5 E900.10444
G1 X126.015 Y113.071 E900.76523
G1 X125.756 Y114.644 E901.43478
G1 X125.337 Y116.154 E902.09295
G1 X124.746 Y117.637 E902.76344
G1 X124.01 Y119.025 E903.42329
G1 X123.125 Y120.331 E904.08589
G1 X122.095 Y121.543 E904.75392
G1 X120.951 Y122.627 E905.41584
G1 X119.696 Y123.581 E906.07794
G1 X118.337 Y124.399 E906.74414
G1 X116.904 Y125.062 E907.4073
G1 X115.408 Y125.566 E908.07032
G1 X113.861 Y125.906 E908.73556
G1 X112.287 Y126.077 E909.40053
G1 X110.713 Y126.077 E910.06161
G1 X109.139 Y125.906 E910.72658
G1 X107.592 Y125.566 E911.39183
G1 X106.096 Y125.062 E912.05485
G1 X104.663 Y124.399 E912.71801
G1 X103.304 Y123.581 E913.38421
G1 X102.049 Y122.627 E914.04631
G1 X100.905 Y121.543 E914.70823
G1 X99.875 Y120.331 E915.37626
G1 X98.99 Y119.025 E916.03886
G1 X98.254 Y117.637 E916.6987
G1 X97.663 Y116.154 E917.3692
G1 X97.244 Y114.644 E918.02737
G1 X96.985 Y113.071 E918.69692
G1 X96.9 Y111.5 E919.35771
G1 X96.985 Y109.929 E920.01849
G1 X97.244 Y108.356 E920.68805
G1 X97.663 Y106.846 E921.34621
G1 X98.254 Y105.363 E922.01671
G1 X98.99 Y103.975 E922.67655
G1 X99.875 Y102.669 E923.33915
G1 X100.905 Y101.457 E924.00718
G1 X102.049 Y100.373 E924.6691
G1 X103.304 Y99.419 E925.33121
G1 X104.663 Y98.601 E925.99741
G1 X106.096 Y97.938 E926.66056
G1 X107.592 Y97.434 E927.32358
G1 X109.139 Y97.094 E927.98883
G1 X110.713 Y96.922 E928.65384
