;FLAVOR:UltiGCode
;TIME:473
;MATERIAL:5523
;MATERIAL2:0
;NOZZLE_DIAMETER:0.8
;Generated with Cura_SteamEngine 2.5.0

;LAYER_COUNT:33
;LAYER:0




G0 F5400 X104.172 Y99.222
G1 F1800 X109.139 Y104.189 E7.56054
G1 X109.262 Y104.312
G0 F5400 X111.261 Y103.837
G1 F1800 X105.805 Y98.38 E10.42342
G1 X105.682 Y98.257
G0 F5400 X107.618 Y97.718
G1 F1800 X114.248 Y104.349 E13.90227
G1 X114.371 Y104.472
G0 F5400 X115.873 Y105.48
G0 X116.761 Y106.239
G0 X117.52 Y107.127
G0 X118.649 Y108.75
G1 F1800 X125.263 Y115.364 E17.37246
G1 X125.386 Y115.487
G0 F5400 X124.62 Y117.195
G1 F1800 X119.161 Y111.737 E20.23638
G1 X119.038 Y111.614
G0 F5400 X118.809 Y113.859
G1 F1800 X123.79 Y118.84 E22.84978
G1 X123.913 Y118.963
G0 F5400 X122.78 Y120.305
G1 F1800 X118.008 Y115.533 E25.35352
G1 X117.885 Y115.41
G0 F5400 X116.931 Y116.931
G1 F1800 X121.613 Y121.613 E27.81004
G1 X121.736 Y121.736
G0 F5400 X120.295 Y122.77
G1 F1800 X115.534 Y118.009 E30.30801
G1 X115.411 Y117.886
G0 F5400 X113.86 Y118.81
G1 F1800 X118.826 Y123.776 E32.91354
G1 X118.949 Y123.899
G0 F5400 X117.193 Y124.618
G1 F1800 X111.737 Y119.162 E35.77616
G1 X111.614 Y119.039
G0 F5400 X108.75 Y118.65
G1 F1800 X115.38 Y125.28 E39.25474
G1 X115.503 Y125.403
G0 F5400 X113.308 Y125.683
G1 F1800 X97.309 Y109.683 E47.64925
G1 X97.186 Y109.56
G0 F5400 X97.735 Y107.635
G1 F1800 X104.349 Y114.248 E51.11918
G1 X104.472 Y114.371
G0 F5400 X103.837 Y111.261
G1 F1800 X98.379 Y105.803 E53.98284
G1 X98.256 Y105.68
G0 F5400 X99.209 Y104.158
G1 F1800 X104.19 Y109.139 E56.59624
G1 X104.313 Y109.262
G0 F5400 X104.99 Y107.465
G1 F1800 X100.218 Y102.693 E59.09998
G1 X100.095 Y102.57
G0 F5400 X109.689 Y97.315
G1 F1800 X125.689 Y113.315 E67.49475
G1 X125.812 Y113.438
G0 F5400 X125.788 Y110.939
G1 F1800 X112.05 Y97.201 E74.70271
G1 X111.927 Y97.078
G0 F5400 X114.943 Y97.618
G1 F1800 X125.379 Y108.055 E80.17846
G1 X125.502 Y108.178
G0 F5400 X123.455 Y103.656
G1 F1800 X119.319 Y99.52 E82.34851
G1 X119.196 Y99.397
G0 F5400 X108.123 Y104.87
G0 X107.127 Y105.48
G0 X97.21 Y112.06
G1 F1800 X110.947 Y125.796 E89.55569
G1 X111.07 Y125.919
G0 F5400 X108.056 Y125.38
G1 F1800 X97.619 Y114.943 E95.0317
G1 X97.496 Y114.82
G0 F5400 X99.544 Y119.343
G1 F1800 X103.68 Y123.479 E97.20175
G1 X103.803 Y123.602
G0 F5400 X103.304 Y123.581
;TYPE:WALL-OUTER
G1 F1800 X102.049 Y122.627 E97.78661
G1 X100.905 Y121.543 E98.3713
G1 X99.875 Y120.331 E98.9614
G1 X98.99 Y119.025 E99.54669
G1 X98.254 Y117.637 E100.12956
G1 X97.663 Y116.154 E100.72183
G1 X97.244 Y114.644 E101.30321
G1 X96.985 Y113.071 E101.89465
G1 X96.9 Y111.5 E102.47834
G1 X96.985 Y109.929 E103.06204
G1 X97.244 Y108.356 E103.65348
G1 X97.663 Y106.846 E104.23485
G1 X98.254 Y105.363 E104.82713
G1 X98.99 Y103.975 E105.40999
G1 X99.875 Y102.669 E105.99529
G1 X100.905 Y101.457 E106.58538
G1 X102.049 Y100.373 E107.17008
G1 X103.304 Y99.419 E107.75493
G1 X104.663 Y98.601 E108.34341
G1 X106.096 Y97.938 E108.9292
G1 X107.592 Y97.434 E109.51486
G1 X109.139 Y97.094 E110.1025
G1 X110.713 Y96.922 E110.68993
G1 X112.287 Y96.922 E111.27388
G1 X113.861 Y97.094 E111.86131
G1 X115.408 Y97.434 E112.44895
G1 X116.904 Y97.938 E113.03462
G1 X118.337 Y98.601 E113.6204
G1 X119.696 Y99.419 E114.20888
G1 X120.951 Y100.373 E114.79374
G1 X122.095 Y101.457 E115.37844
G1 X123.125 Y102.669 E115.96853
G1 X124.01 Y103.975 E116.55382
G1 X124.746 Y105.363 E117.13669
G1 X125.337 Y106.846 E117.72896
G1 X125.756 Y108.356 E118.31034
G1 X126.015 Y109.929 E118.90178
G1 X126.1 Y111.5 E119.48547
G1 X126.015 Y113.071 E120.06917
G1 X125.756 Y114.644 E120.66061
G1 X125.337 Y116.154 E121.24198
G1 X124.746 Y117.637 E121.83426
G1 X124.01 Y119.025 E122.41712
G1 X123.125 Y120.331 E123.00242
G1 X122.095 Y121.543 E123.59251
G1 X120.951 Y122.627 E124.17721
G1 X119.696 Y123.581 E124.76206
G1 X118.337 Y124.399 E125.35054
G1 X116.904 Y125.062 E125.93633
G1 X115.408 Y125.566 E126.522
G1 X113.861 Y125.906 E127.10963
G1 X112.287 Y126.077 E127.69702
G1 X110.713 Y126.077 E128.28098
G1 X109.139 Y125.906 E128.86837
G1 X107.592 Y125.566 E129.456
G1 X106.096 Y125.062 E130.04167
G1 X104.663 Y124.399 E130.62745
G1 X103.304 Y123.581 E131.21593
G0 F5400 X102.986 Y123.339
G0 X103.047 Y123.261
G0 X107.092 Y117.568
G0 X107.15 Y117.488
G1 F1800 X108.141 Y118.095 E131.64708
G1 X109.213 Y118.539 E132.07755
G1 X110.342 Y118.809 E132.50823
G1 X111.5 Y118.901 E132.9392
G1 X112.658 Y118.809 E133.37017
G1 X113.787 Y118.539 E133.80084
G1 X114.859 Y118.095 E134.23131
G1 X115.85 Y117.488 E134.66246
G1 X116.733 Y116.733 E135.09348
G1 X117.488 Y115.85 E135.5245
G1 X118.095 Y114.859 E135.95564
G1 X118.539 Y113.787 E136.38612
G1 X118.809 Y112.658 E136.81679
G1 X118.901 Y111.5 E137.24776
G1 X118.809 Y110.342 E137.67873
G1 X118.539 Y109.213 E138.1094
G1 X118.095 Y108.141 E138.53988
G1 X117.488 Y107.15 E138.97103
G1 X116.733 Y106.267 E139.40204
G1 X115.85 Y105.512 E139.83306
G1 X114.859 Y104.905 E140.26421
G1 X113.787 Y104.461 E140.69468
G1 X112.658 Y104.191 E141.12535
G1 X111.5 Y104.1 E141.5563
G1 X110.342 Y104.191 E141.98724
G1 X109.213 Y104.461 E142.41791
G1 X108.141 Y104.905 E142.84838
G1 X107.15 Y105.512 E143.27953
G1 X106.267 Y106.267 E143.71055
G1 X105.512 Y107.15 E144.14157
G1 X104.905 Y108.141 E144.57271
G1 X104.461 Y109.213 E145.00319
G1 X104.191 Y110.342 E145.43386
G1 X104.099 Y111.5 E145.86483
G1 X104.191 Y112.658 E146.2958
G1 X104.461 Y113.787 E146.72647
G1 X104.905 Y114.859 E147.15695
G1 X105.512 Y115.85 E147.5881
G1 X106.267 Y116.733 E148.01911
G1 X107.15 Y117.488 E148.45013
G0 F5400 X107.491 Y117.696
G0 X107.124 Y118.291
G0 X105.48 Y115.873
G0 X104.87 Y114.877
G0 X104.423 Y113.799
G0 X104.152 Y112.664
G0 X102.742 Y100.197
;TIME_ELAPSED:17.224556
;LAYER:1
M106 S255
G0 F6300 X102.742 Y100.197 Z1.13
;TYPE:FILL
G1 F2100 X100.09 Y102.849 E150.02534
G1 X99.967 Y102.972
G0 F6300 X97.72 Y107.694
G1 F2100 X107.724 Y97.689 E155.96771
G1 X107.847 Y97.566
G0 F6300 X110.682 Y97.206
G1 F2100 X97.226 Y110.662 E163.96016
G1 X97.103 Y110.785
G0 F6300 X97.273 Y113.091
G1 F2100 X113.074 Y97.29 E173.34548
G1 X113.197 Y97.167
G0 F6300 X115.171 Y97.667
G1 F2100 X108.305 Y104.533 E177.42368
G1 X108.182 Y104.656
G0 F6300 X111.494 Y103.819
G1 F2100 X117.016 Y98.297 E180.70358
G1 X117.139 Y98.174
G0 F6300 X118.663 Y99.125
G1 F2100 X113.649 Y104.139 E183.68174
G1 X113.526 Y104.262
G0 F6300 X115.371 Y104.892
G1 F2100 X120.148 Y100.115 E186.51913
G1 X120.271 Y99.992
G0 F6300 X121.479 Y101.259
G1 F2100 X116.79 Y105.947 E189.30396
G1 X116.667 Y106.07
G0 F6300 X117.91 Y107.303
G1 F2100 X122.659 Y102.553 E192.12502
G1 X122.782 Y102.43
G0 F6300 X123.687 Y104
G1 F2100 X118.734 Y108.953 E195.06695
G1 X118.611 Y109.076
G0 F6300 X119.142 Y111.02
G1 F2100 X124.544 Y105.618 E198.27558
G1 X124.667 Y105.495
G0 F6300 X125.205 Y107.432
G1 F2100 X118.82 Y113.818 E202.06837
G1 X118.697 Y113.941
G0 F6300 X123.895 Y118.642
G1 F2100 X118.661 Y123.876 E205.17721
G1 X118.538 Y123.999
G0 F6300 X114.607 Y125.454
G1 F2100 X125.48 Y114.582 E211.63514
G1 X125.603 Y114.459
G0 F6300 X125.803 Y111.784
G1 F2100 X111.791 Y125.796 E219.95785
G1 X111.668 Y125.919
G0 F6300 X109.455 Y125.657
G1 F2100 X125.652 Y109.46 E229.57837
G1 X125.775 Y109.337
G0 F6300 X115.873 Y117.52
G0 X113.818 Y118.819
G1 F2100 X107.423 Y125.214 E233.37681
G1 X107.3 Y125.337
G0 F6300 X105.626 Y124.536
G1 F2100 X111.02 Y119.142 E236.58068
G1 X111.143 Y119.019
G0 F6300 X108.954 Y118.733
G1 F2100 X104.009 Y123.678 E239.51786
G1 X103.886 Y123.801
G0 F6300 X102.555 Y122.658
G1 F2100 X107.304 Y117.909 E242.33862
G1 X107.427 Y117.786
G0 F6300 X105.947 Y116.791
G1 F2100 X101.252 Y121.486 E245.12731
G1 X101.129 Y121.609
G0 F6300 X100.1 Y120.163
G1 F2100 X104.891 Y115.372 E247.97302
G1 X105.014 Y115.249
G0 F6300 X104.138 Y113.65
G1 F2100 X99.119 Y118.669 E250.95415
G1 X98.996 Y118.792
G0 F6300 X98.306 Y117.007
G1 F2100 X103.818 Y111.495 E254.22812
G1 X103.941 Y111.372
G0 F6300 X104.533 Y108.306
G1 F2100 X97.679 Y115.159 E258.29889
G1 X97.556 Y115.282
G0 F6300 X97.244 Y114.644
;TYPE:WALL-OUTER
G1 F1650 X96.985 Y113.071 E258.96844
G1 X96.9 Y111.5 E259.62923
G1 X96.985 Y109.929 E260.29001
G1 X97.244 Y108.356 E260.95957
G1 X97.663 Y106.846 E261.61773
G1 X98.254 Y105.363 E262.28823
G1 X98.99 Y103.975 E262.94808
G1 X99.875 Y102.669 E263.61067
G1 X100.905 Y101.457 E264.2787
G1 X102.049 Y100.373 E264.94063
G1 X103.304 Y99.419 E265.60273
G1 X104.663 Y98.601 E266.26893
G1 X106.096 Y97.938 E266.93208
G1 X107.592 Y97.434 E267.5951
G1 X109.139 Y97.094 E268.26035
G1 X110.713 Y96.922 E268.92537
G1 X112.287 Y96.922 E269.58645
G1 X113.861 Y97.094 E270.25146
G1 X115.408 Y97.434 E270.91671
G1 X116.904 Y97.938 E271.57973
G1 X118.337 Y98.601 E272.24288
G1 X119.696 Y99.419 E272.90908
G1 X120.951 Y100.373 E273.57119
G1 X122.095 Y101.457 E274.23311
G1 X123.125 Y102.669 E274.90114
G1 X124.01 Y103.975 E275.56373
G1 X124.746 Y105.363 E276.22358
G1 X125.337 Y106.846 E276.89408
G1 X125.756 Y108.356 E277.55224
G1 X126.015 Y109.929 E278.2218
G1 X126.1 Y111.5 E278.88258
G1 X126.015 Y113.071 E279.54337
G1 X125.756 Y114.644 E280.21292
G1 X125.337 Y116.154 E280.87109
G1 X124.746 Y117.637 E281.54159
G1 X124.01 Y119.025 E282.20143
G1 X123.125 Y120.331 E282.86403
G1 X122.095 Y121.543 E283.53206
G1 X120.951 Y122.627 E284.19398
G1 X119.696 Y123.581 E284.85608
G1 X118.337 Y124.399 E285.52228
G1 X116.904 Y125.062 E286.18544
G1 X115.408 Y125.566 E286.84846
G1 X113.861 Y125.906 E287.51371
G1 X112.287 Y126.077 E288.17868
G1 X110.713 Y126.077 E288.83976
G1 X109.139 Y125.906 E289.50473
G1 X107.592 Y125.566 E290.16997
G1 X106.096 Y125.062 E290.83299
G1 X104.663 Y124.399 E291.49615
G1 X103.304 Y123.581 E292.16235
G1 X102.049 Y122.627 E292.82445
G1 X100.905 Y121.543 E293.48637
G1 X99.875 Y120.331 E294.1544
G1 X98.99 Y119.025 E294.817
G1 X98.254 Y117.637 E295.47685
G1 X97.663 Y116.154 E296.14734
G1 X97.244 Y114.644 E296.80551
G0 F6300 X97.18 Y114.25
G0 X97.278 Y114.235
G0 X104.093 Y112.673
G0 X104.191 Y112.658
G1 F1650 X104.461 Y113.787 E297.29306
G1 X104.905 Y114.859 E297.78039
G1 X105.512 Y115.85 E298.26848
G1 X106.267 Y116.733 E298.75643
G1 X107.15 Y117.488 E299.24437
G1 X108.141 Y118.095 E299.73246
G1 X109.213 Y118.539 E300.21979
G1 X110.342 Y118.809 E300.70734
G1 X111.5 Y118.901 E301.19524
G1 X112.658 Y118.809 E301.68313
G1 X113.787 Y118.539 E302.17068
G1 X114.859 Y118.095 E302.65801
G1 X115.85 Y117.488 E303.1461
G1 X116.733 Y116.733 E303.63405
G1 X117.488 Y115.85 E304.12199
G1 X118.095 Y114.859 E304.61008
G1 X118.539 Y113.787 E305.09741
G1 X118.809 Y112.658 E305.58496
G1 X118.901 Y111.5 E306.07286
G1 X118.809 Y110.342 E306.56075
G1 X118.539 Y109.213 E307.0483
G1 X118.095 Y108.141 E307.53563
G1 X117.488 Y107.15 E308.02372
G1 X116.733 Y106.267 E308.51167
G1 X115.85 Y105.512 E308.99961
G1 X114.859 Y104.905 E309.4877
G1 X113.787 Y104.461 E309.97503
G1 X112.658 Y104.191 E310.46258
G1 X111.5 Y104.1 E310.95044
G1 X110.342 Y104.191 E311.4383
G1 X109.213 Y104.461 E311.92585
G1 X108.141 Y104.905 E312.41318
G1 X107.15 Y105.512 E312.90127
G1 X106.267 Y106.267 E313.38922
G1 X105.512 Y107.15 E313.87716
G1 X104.905 Y108.141 E314.36525
G1 X104.461 Y109.213 E314.85259
G1 X104.191 Y110.342 E315.34014
G1 X104.099 Y111.5 E315.82803
G1 X104.191 Y112.658 E316.31592
G0 F6300 X104.284 Y113.047
G0 X103.602 Y113.208
G0 X101.386 Y101.386
;TIME_ELAPSED:31.806481
;LAYER:2
G0 F7200 X101.386 Y101.386 Z1.73
;TYPE:FILL
G1 F2400 X106.067 Y106.067 E319.09629
G1 X106.19 Y106.19
G0 F7200 X107.465 Y104.99
G1 F2400 X102.703 Y100.228 E321.92478
G1 X102.58 Y100.105
G0 F7200 X104.172 Y99.222
G1 F2400 X109.139 Y104.189 E324.87502
G1 X109.262 Y104.312
G0 F7200 X111.261 Y103.837
G1 F2400 X105.805 Y98.38 E328.11602
G1 X105.682 Y98.257
G0 F7200 X107.618 Y97.718
G1 F2400 X114.248 Y104.349 E332.05434
G1 X114.371 Y104.472
G0 F7200 X115.873 Y105.48
G0 X116.761 Y106.239
G0 X117.52 Y107.127
G0 X118.649 Y108.75
G1 F2400 X125.263 Y115.364 E335.98285
G1 X125.386 Y115.487
G0 F7200 X124.62 Y117.195
G1 F2400 X119.161 Y111.737 E339.22504
G1 X119.038 Y111.614
G0 F7200 X118.809 Y113.859
G1 F2400 X123.79 Y118.84 E342.1836
G1 X123.913 Y118.963
G0 F7200 X122.78 Y120.305
G1 F2400 X118.008 Y115.533 E345.01802
G1 X117.885 Y115.41
G0 F7200 X116.931 Y116.931
G1 F2400 X121.613 Y121.613 E347.79899
G1 X121.736 Y121.736
G0 F7200 X120.295 Y122.77
G1 F2400 X115.534 Y118.009 E350.62688
G1 X115.411 Y117.886
G0 F7200 X113.86 Y118.81
G1 F2400 X118.826 Y123.776 E353.57653
G1 X118.949 Y123.899
G0 F7200 X117.193 Y124.618
G1 F2400 X111.737 Y119.162 E356.81723
G1 X111.614 Y119.039
G0 F7200 X108.75 Y118.65
G1 F2400 X115.38 Y125.28 E360.75525
G1 X115.503 Y125.403
G0 F7200 X113.308 Y125.683
G1 F2400 X97.309 Y109.683 E370.25847
G1 X97.186 Y109.56
G0 F7200 X97.735 Y107.635
G1 F2400 X104.349 Y114.248 E374.18669
G1 X104.472 Y114.371
G0 F7200 X103.837 Y111.261
G1 F2400 X98.379 Y105.803 E377.42857
G1 X98.256 Y105.68
G0 F7200 X99.209 Y104.158
G1 F2400 X104.19 Y109.139 E380.38714
G1 X104.313 Y109.262
G0 F7200 X104.99 Y107.465
G1 F2400 X100.218 Y102.693 E383.22156
G1 X100.095 Y102.57
G0 F7200 X109.689 Y97.315
G1 F2400 X125.689 Y113.315 E392.72507
G1 X125.812 Y113.438
G0 F7200 X125.788 Y110.939
G1 F2400 X112.05 Y97.201 E400.88503
G1 X111.927 Y97.078
G0 F7200 X114.943 Y97.618
G1 F2400 X125.379 Y108.055 E407.08399
G1 X125.502 Y108.178
G0 F7200 X123.455 Y103.656
G1 F2400 X119.319 Y99.52 E409.54065
G1 X119.196 Y99.397
G0 F7200 X108.123 Y104.87
G0 X107.127 Y105.48
G0 X97.21 Y112.06
G1 F2400 X110.947 Y125.796 E417.69972
G1 X111.07 Y125.919
G0 F7200 X108.056 Y125.38
G1 F2400 X97.619 Y114.943 E423.89898
G1 X97.496 Y114.82
G0 F7200 X99.544 Y119.343
G1 F2400 X103.68 Y123.479 E426.35564
G1 X103.803 Y123.602
G0 F7200 X103.304 Y123.581
;TYPE:WALL-OUTER
G1 F1500 X102.049 Y122.627 E427.01774
G1 X100.905 Y121.543 E427.67966
G1 X99.875 Y120.331 E428.34769
G1 X98.99 Y119.025 E429.01029
G1 X98.254 Y117.637 E429.67014
G1 X97.663 Y116.154 E430.34063
G1 X97.244 Y114.644 E430.9988
G1 X96.985 Y113.071 E431.66835
G1 X96.9 Y111.5 E432.32914
G1 X96.985 Y109.929 E432.98992
G1 X97.244 Y108.356 E433.65948
G1 X97.663 Y106.846 E434.31764
G1 X98.254 Y105.363 E434.98814
G1 X98.99 Y103.975 E435.64799
G1 X99.875 Y102.669 E436.31058
G1 X100.905 Y101.457 E436.97861
G1 X102.049 Y100.373 E437.64054
G1 X103.304 Y99.419 E438.30264
G1 X104.663 Y98.601 E438.96884
G1 X106.096 Y97.938 E439.63199
G1 X107.592 Y97.434 E440.29501
G1 X109.139 Y97.094 E440.96026
G1 X110.713 Y96.922 E441.62528
G1 X112.287 Y96.922 E442.28636
G1 X113.861 Y97.094 E442.95137
G1 X115.408 Y97.434 E443.61662
G1 X116.904 Y97.938 E444.27964
G1 X118.337 Y98.601 E444.94279
G1 X119.696 Y99.419 E445.60899
G1 X120.951 Y100.373 E446.2711
G1 X122.095 Y101.457 E446.93302
G1 X123.125 Y102.669 E447.60105
G1 X124.01 Y103.975 E448.26365
G1 X124.746 Y105.363 E448.92349
G1 X125.337 Y106.846 E449.59399
G1 X125.756 Y108.356 E450.25215
G1 X126.015 Y109.929 E450.92171
G1 X126.1 Y111.5 E451.58249
G1 X126.015 Y113.071 E452.24328
G1 X125.756 Y114.644 E452.91284
G1 X125.337 Y116.154 E453.571
G1 X124.746 Y117.637 E454.2415
G1 X124.01 Y119.025 E454.90134
G1 X123.125 Y120.331 E455.56394
G1 X122.095 Y121.543 E456.23197
G1 X120.951 Y122.627 E456.89389
G1 X119.696 Y123.581 E457.55599
G1 X118.337 Y124.399 E458.2222
G1 X116.904 Y125.062 E458.88535
G1 X115.408 Y125.566 E459.54837
G1 X113.861 Y125.906 E460.21362
G1 X112.287 Y126.077 E460.87859
G1 X110.713 Y126.077 E461.53967
G1 X109.139 Y125.906 E462.20464
G1 X107.592 Y125.566 E462.86988
G1 X106.096 Y125.062 E463.5329
G1 X104.663 Y124.399 E464.19606
G1 X103.304 Y123.581 E464.86226
G0 F7200 X102.986 Y123.339
G0 X103.047 Y123.261
G0 X107.092 Y117.568
G0 X107.15 Y117.488
G1 F1500 X108.141 Y118.095 E465.35035
G1 X109.213 Y118.539 E465.83768
G1 X110.342 Y118.809 E466.32523
G1 X111.5 Y118.901 E466.81313
G1 X112.658 Y118.809 E467.30102
G1 X113.787 Y118.539 E467.78857
G1 X114.859 Y118.095 E468.2759
G1 X115.85 Y117.488 E468.76399
G1 X116.733 Y116.733 E469.25194
G1 X117.488 Y115.85 E469.73988
G1 X118.095 Y114.859 E470.22797
G1 X118.539 Y113.787 E470.7153
G1 X118.809 Y112.658 E471.20285
G1 X118.901 Y111.5 E471.69075
G1 X118.809 Y110.342 E472.17864
G1 X118.539 Y109.213 E472.66619
G1 X118.095 Y108.141 E473.15352
